X:1
T:The Pill
M:6/8
L:1/4
K:C
 C/2| E3/2- E D/2| C3/2- C D/2| E D/2 C E/2| G3/2- G G/2| A/2A/2A/2 A c/2|\
 G G/2 E C/2| D D/2 E D/2| C3/2 z C/2| E E/2 E D/2| C C/2 C D/2| E D/2 C E/2|\
 G3/2- G G/2| A A/2 A c/2| G G/2 G E/2| D D/2 E D/2| G3/2- G G/2| E E/2 E D/2|\
 C3/2 C D/2| E D/2C/2 E| G3/2- G G/2| A/2 A A c/2| G/2 E C C/2| D D/2 E D/2|\
 C3/2- C||

